!!!!SEGMENT: pl-sa--548-a-ix-28--009_anonim--mazur.krn
!!!cenid: 18xx:432
!!!COM: Anonim
!!!COM-rismid: pe30004985
!!!CDT:
!!!CNT:
!!!OTL: Mazur
!!!PDT:
!!!AGN: Secular; Mazurka
!!!SMS-siglum: PL-SA
!!!SMS-shelfmark: 548/A IX 28
!!!SMS-shelfwork: 009 W
!!!SMS-variant:
!!!SMS-altvar:
!!!NIFC-rismid: 1001068960
!!!URL-scan: http://bc.bdsandomierz.pl/dlibra/publication/1440/edition/1408/content
!!!ONB-nifc: Str. 13 (s. 3) – str. 14 (s. 2)
**kern	**kern
*part1	*part1
*staff2	*staff1
*I"Piano	*
*I'P-no	*
*clefF4	*clefG2
*k[f#c#]	*k[f#c#]
*M3/8	*M3/8
=1	=1
*all\right	*all\right
!LO:TX:a:t=P:problem:krzyżyki jeden nad drugim	!LO:TX:a:t=P:problem:krzyżyki jeden nad drugim
!	!LO:TX:a:t=Mazur 2.
8D\L	16a\LL
.	32b\L
.	32cc#\JJJ
8A 8F#\	8dd\
8AJ 8F#\	16dd\LL
.	16cc#\JJ
=2	=2
*rep	*
8D\L	16dd\LL
.	32ee\L
.	32ff#\JJJ
8A 8F#\	16gg\LL
.	16ff#\
8AJ 8F#\	16ee\
.	16dd\JJ
*Xrep	*
!LO:LB:g=original	!LO:LB:g=original
=3	=3
*rep	*
8D\L	16ff#\LL
.	16ff#sS\JJ
8A 8F#\	8dd\L
8AJ 8F#\	8ff#\J
*Xrep	*
=4	=4
8A 8AA\	16aa\LL
.	16gg#X\JJ
4A 4E 4AA\	4ee 4cc# 4a\
=5	=5
8AA/L	8aaL 8ee 8cc# 8a\
8C#/	8aaJ 8ee 8cc# 8a\
.	8qqbb/
8E/J	16.aa\LL
.	32gg#X\JJk
=6	=6
!	!LO:TX:a:t=P:problem:cztery szesnastki przekreślone
8AL 8E 8C# 8AA\	16.aa\LL
.	32ee\JJk
8A 8E 8C# 8AA\	16dd\LL
.	16cc#\
8AJ 8E 8C# 8AA\	16b\
.	16a\JJ
=7	=7
8G\L	16.a\LL
.	32cc#\K
8E\	16.ee\
.	32cc#\K
8C#\J	16.ee\
.	32gg\JJk
=8	=8
8D\L	16gg\LL
.	16ff#\JJ
8AJ 8F#\	4dd\
8r	.
!LO:LB:g=original	!LO:LB:g=original
=9||	=9||
8AL 8AA\	16aa\LL
.	16aasS\JJ
8e 8c# 8A\	8ee\
8eJ 8c# 8A\	16ff#\LL
.	16gg\JJ
=10	=10
8D\L	16.ff#\LL
.	32cc#\JJk
.	8qee/
8d 8A 8F#\	16.dd\LL
.	32cc#\K
8dJ 8A 8F#\	16.dd\
.	32ff#\JJk
=11	=11
!LO:TX:a:t=P:problem:mixed beam	!
8AA/L	8a\
8c# 8A\	16.a\LL
.	32cc#\K
8A\J	16.ee\
.	32cc#\JJk
=12	=12
8dL 8D\	16.dd\LL
.	32cc#\K
8e 8A 8F#\	16.dd\
.	32ff#\JJk
8dJ 8A 8F#\	16bb\LL
.	16aa\JJ
=13	=13
8AL 8AA\	16aa\LL
.	16aasS\JJ
8e 8c# 8A\	8ee\L
8eJ 8c# 8A\	16ff#\L
.	16gg\JJ
=14	=14
8D\L	16.ff#\LL
.	32cc#\JJk
.	8qee/
8d 8A 8F#\	16.dd\LL
.	32cc#\K
8dJ 8A 8F#\	16.dd\
.	32ff#\JJk
=15	=15
4.ryy	8a\
.	16.a\LL
.	32cc#\K
.	16.ee\
.	32cc#\JJk
=16	=16
8D\L	16cc#\LL
.	16dd\JJ
!	!LO:SIC:v:s=4d
8AJ 8F#\	4c#/
8r	.
!LO:PB:g=original	!LO:PB:g=original
=17||	=17||
*	*k[cnf#]
!LO:TX:a:t=P:problem:brak znaków przy kluczu	!
8GL 8GG\	16.bb\LL
.	32aa\JJk
8d 8B 8G\	8.ddd\L
8dJ 8B 8G\	.
.	16ccc#X\Jk
=18	=18
*rep	*
8GL 8GG\	16eee\LL
.	16ddd\
8d 8B 8G\	16ccc#X\
.	16ddd\
8dJ 8B 8G\	16bb\
.	16gg\JJ
*Xrep	*
=19	=19
*rep	*
.	8qccc/
!	!LO:N:vis=16.
8GL 8GG\	16bb\LL
.	16aa\
8d 8B 8G\	16bb\
.	16cccn\
8dJ 8B 8G\	16ddd\
.	16ccc#X\JJ
*Xrep	*
=20	=20
*rep	*
8GL 8GG\	16.eee\LL
.	32ddd\JJk
8d 8B 8G\	16ccc#X\LL
.	16ddd\
8dJ 8B 8G\	16bb\
.	16gg\JJ
*Xrep	*
=21	=21
8c#L 8A 8F# 8D\	16aa\LL
.	32gg\L
.	32ff#\JJJ
8c# 8A 8D\	8.ff#\L
8c#J 8A 8D\	.
.	16ee\Jk
=22	=22
.	8qaa/
8BL 8G 8D\	16.gg\LL
.	32ff#\K
8B 8G 8D\	16.gg\
.	32aa\K
8BJ 8G 8D\	16.bb\
.	32gg\JJk
!LO:LB:g=original	!LO:LB:g=original
=23	=23
8c#L 8A 8D\	16ff#\LL
.	16gg\JJ
8c# 8A 8D\	8.ddd\L
8c#J 8A 8D\	.
.	16ccc\Jk
=24	=24
8G\L	16ccc\LL
.	16bb\
8d 8B\	16aa\
.	16bb\JJ
8dJ 8B\	8bb\
=25	=25
8c#L 8A 8D\	16aa\LL
.	32gg\L
.	32ff#\JJJ
8c# 8A 8D\	8.ff#\L
8c#J 8A 8D\	.
.	16dd\Jk
=26	=26
.	8qaa/
8BL 8G 8D\	16gg\LL
.	16ff#\
8B 8G 8D\	16gg\
.	16aa\
8BJ 8G 8D\	16bb\
.	16gg\JJ
=27	=27
8c#L 8A 8D\	16ff#\LL
.	16aa\
8c# 8A 8D\	16ddd\
.	16ccc\
8c#J 8A 8D\	16aa\
.	16ff#\JJ
=28	=28
8B 8G 8D\	16ff#\LL
.	16gg\JJ
4B 4G\	4g/
==	==
*-	*-
!!!system-decoration: {(s1,s2)}
!!!ENC: Marta Lawrence
!!!END: 2020-11-23
!!!ENC:Anastazja Marusiak
!!!END:2020-06-15
